!!!COM: Scarlatti, Domenico
!!!CDT: 1685///-1757///
!!!OTL: Sonata in G Major, K.470, L.304
!!!SCT: K. 470
!!!SCT: L. 304
**kern	**kern	**dynam
*staff2	*staff1	*staff1/2
*Icemba	*Icemba	*Icemba
*>[A,A,B,B]	*>[A,A,B,B]	*>[A,A,B,B]
*>norep[A,B]	*>norep[A,B]	*>norep[A,B]
*>A	*>A	*>A
*clefF4	*clefG2	*clefG2
*k[f#]	*k[f#]	*k[f#]
*G:	*G:	*G:
*M2/2	*M2/2	*M2/2
*MM216	*MM216	*MM216
4r	4gg'\	mf
=1	=1	=1
2GG/ 2G/	(4gg\	.
.	4dd\)	.
2B\ 2d\	(4dd\	.
.	4ee\)	.
=2	=2	=2
.	(ff#q/	.
2F#\ 2c\ 2d\	(4ee\)	.
.	4dd\)	.
.	(eeq/	.
2F#\ 2c\ 2d\	(4dd\)	.
.	4cc\)	.
=3	=3	=3
.	ccq/	.
2G\ 2d\	(4b\	.
.	4a/	.
2E\ 2c#\	4g/	.
.	8f#/L	.
.	8g/J)	.
=4	=4	=4
.	gq/	.
4D\	2a/	.
4D\ (4d\	.	.
4Cn\ 4cn\)	4r	.
4BB'\ 4B'\	4dd'\	.
=5	=5	=5
(4AA\ 4A\	(4dd\	.
4GG/ 4G/	4f#/)	.
4FF#/ 4F#/	(4f#/	.
4EE/ 4E/	4g/)	.
=6	=6	=6
4DD/ 4D/	4g'/	.
4CC/ 4C/	4f#/ 4a/	.
4BBB/ 4BB/	4g/ 4b/	.
4AAA/ 4AA/	4a\ 4cc\	.
=7	=7	=7
4GGG/) 4GG/	4b\ 4dd\	.
(4C/	8ee\L	.
.	8cc\J	.
4D'/)	4g'/ 4b'/	.
4DD'/	4f#'/ 4a'/	.
=8	=8	=8
2.GGG/	2g/	.
.	4r	.
4r	4gg'\	p
=9	=9	=9
2GG/ 2G/	(4gg\	.
.	4dd\)	.
2B-\ 2d\	(4dd\	.
.	4ee-\)	.
=10	=10	=10
.	(ffnq/	.
2F#\ 2c\ 2d\	(4ee-\)	<
.	4dd\)	.
.	ee-q/	.
2F#\ 2c\ 2d\	(4dd\	.
.	4cc\)	.
=11	=11	=11
.	(ccq/	.
2G\ 2d\	(4b-\)	.
.	4a/	.
2E-\ 2c\	4g/	.
.	8f#/L	.
.	8g/J)	.
=12	=12	=12
.	gq/	.
4D\	2a/	mf
4D\ (4d\	.	.
4C\ 4c\)	4r	.
4BB-'\ 4B-'\	4dd'\	.
=13	=13	=13
(4AA\ 4A\	(4dd\	.
4GG/ 4G/	4f#/)	.
4FF#/ 4F#/	(4f#/	.
4EE-/ 4E-/	4g/)	.
=14	=14	=14
4DD/ 4D/	4a'/	.
4CC/ 4C/	4f#/ 4a/	.
4BBB-/ 4BB-/	4g/ 4b-/	.
4AAA/ 4AA/	4a\ 4cc\	.
=15	=15	=15
4GGG/) 4GG/	4b-\ 4dd\	.
(4C/	8ee-\L	.
.	8cc\J	.
4D'/)	4g'/ 4b-'/	.
4DD'/	4f#'/ 4a'/	.
=16	=16	=16
2GGG/	2g/	.
2r	4r	.
.	4gg'\	p
=17	=17	=17
2G\ 2g\	(4gg\	.
.	4bn\)	.
2G\ 2fn\ 2g\	(4b\	.
.	4aa'\)	.
=18	=18	=18
*	*^	*
2G\ 2e\	(4aa/	2cc\	.
.	4gg/)	.	.
2G\ 2d\	(4gg/	2dd\	.
.	4ffn/)	.	.
=19	=19	=19	=19
*^	*	*	*
4c/	2G\	(4ee/	2g\	.
4B/	.	4dd/)	.	<
2c/	2G\	(4ee/	2cc\	.
.	.	8dd/L	.	.
.	.	8ee/J	.	.
*v	*v	*	*	*
*	*v	*v	*
=20	=20	=20
.	eeq/)	.
1GG	2dd\	>
.	4r	.
.	4gg'\	p
=21	=21	=21
2G\ 2g\	(4gg\	<
.	4b\)	.
2G\ 2fn\ 2g\	(4b\	.
.	4aa-\)	.
=22	=22	=22
*	*^	*
2G\ 2e-\	(4aa-/	2cc\	.
.	4gg/)	.	.
2G\ 2d\	(4gg/	2dd\	.
.	4ffn/)	.	.
=23	=23	=23	=23
*^	*	*	*
4c/	2G\	(4ee-/	2g\	.
4B/	.	4dd/)	.	.
2c/	2G\	(4ee-/	2cc\	.
.	.	8dd/L	.	.
.	.	8ee-/J	.	.
*v	*v	*	*	*
=24	=24	=24	=24
2F#\ 2c\ 2d\	1dd	4cc\)	mf
.	.	8b-\L	.
.	.	8a\J	<
2G\ 2d\	.	(4b-\	.
.	.	8a\L	.
.	.	8b-\J	.
=25	=25	=25	=25
2F#\ 2c\ 2d\	1dd	4cc\	.
.	.	8b-\L	.
.	.	8a\J)	.
2G\ 2d\	.	(4b-\	.
.	.	8a\L	.
.	.	8b-\J	.
=26	=26	=26	=26
2F#\ 2c\ 2d\	1dd	4cc\	.
.	.	8b-\L	.
.	.	8a\J)	.
2G\ 2d\	.	(4b-\	.
.	.	8a\L	.
.	.	8g\J)	.
*	*v	*v	*
=27	=27	=27
2D\ 2A\ 2d\	(4g\	f
.	4a\)	.
2r	2r	.
=28	=28	=28
*	*^	*
1DD 1AA 1D	2.dd^/ 2.ff#^/	4a'\	f
.	.	(8a\L	.
.	.	8f#\J	.
.	.	2a\)	.
.	4dd'/ 4ff#'/	.	.
=29	=29	=29	=29
1AAA 1EE 1AA	4dd'/ 4ff#'/	4a'\	.
.	8ee/L	(4b\	.
.	8dd/J	.	.
.	4ee/	4cc#\)	.
.	4ff#/	4dd'\	.
=30	=30	=30	=30
1AAA 1EE 1AA	2.ee^/ 2.gg^/	4cc#'\	.
.	.	(8cc#\L	.
.	.	8a\J	.
.	.	2g\)	.
.	4cc#/ 4ee/ 4gg/	.	.
=31	=31	=31	=31
1DD 1AA 1D	4ee/ (4gg/	[2a\	.
.	8dd/ 8ff#/L	.	.
.	8cc#/ 8ee/J	.	.
.	4ff#'/	2a\] 2dd\	.
.	4aa'/)	.	.
=32	=32	=32	=32
1DD 1AA 1D	2.dd^/ 2.ff#^/	4a'\	p
.	.	(8a\L	.
.	.	8f#\J	.
.	.	2a\)	.
.	4dd'/ 4ff#'/	.	.
=33	=33	=33	=33
1AAA 1EE 1AA	4dd'/ 4ff#'/	4a'\	.
.	(8ee/L	4b\	.
.	8dd/J	.	.
.	4ee'/)	4cc#'\	.
.	4ff#/	4dd'\	.
=34	=34	=34	=34
1AAA 1EE 1AA	2.ee^/ 2.gg^/	4cc#'\	.
.	.	(8cc#\L	.
.	.	8a\J	.
.	.	2g\)	.
.	4cc#'/ 4ee'/ 4gg'/	.	.
=35	=35	=35	=35
2DD/ 2AA/ 2D/	4ee/ (4gg/	2a\	.
.	8dd/ 8ff#/L	.	.
.	8cc#/ 8ee/J	.	.
2r	2r	2dd;\)	.
*clefG2	*	*	*
=36	=36	=36	=36
(1dd	4ddd/	(8ffn\L	p
.	.	8ee\	.
.	4r	8ff\	.
.	.	8gg\J	.
.	2r	8aa\L	.
.	.	8gg\)	.
.	.	(8ff\	.
.	.	8ee\J)	.
=37	=37	=37	=37
1cc	4ddd/	8ffn\L	<
.	.	8ee\	.
.	4r	8ff\	.
.	.	8gg\J	.
.	2r	8aa\L	.
.	.	8gg\	.
.	.	8ff\	.
.	.	8ee\J	.
=38	=38	=38	=38
1b- 1dd	4ddd/	8ffn\L	.
.	.	8ee\	.
.	4r	8ff\	.
.	.	8gg\J	.
.	2r	8aa\L	.
.	.	8gg\	.
.	.	8ff\	.
.	.	8ee\J	.
=39	=39	=39	=39
1a) 1dd	4ddd/	8ffn\L	mf
.	.	8ee\	.
.	4r	8ff\	.
.	.	8gg\J	.
.	2r	8aa\L	.
.	.	8gg\	.
.	.	8aa\	.
.	.	8ff\J	.
=40	=40	=40	=40
(1g 1b-	4ccc#/	(8ee\L	p
.	.	8dd\	<
.	4r	8ee\	.
.	.	8ffn\J	.
.	2r	8gg\L	.
.	.	(8ff\)	.
.	.	8ee\	.
.	.	8dd\J)	.
=41	=41	=41	=41
1a 1cc#	4ccc#/	8ee\L	.
.	.	8dd\	.
.	4r	8ee\	.
.	.	8ffn\J	.
.	2r	8gg\L	.
.	.	8ff\	.
.	.	8ee\	.
.	.	8dd\J	.
*	*v	*v	*
=42	=42	=42
1g) 1b-	8ee\L	.
.	8dd\	.
.	8ee\	.
.	8ffn\J	.
.	8gg\L	.
.	8ff\	.
.	8ee\	.
.	8dd\J	.
=43	=43	=43
*	*^	*
1g 1b-	4ccc#/	(8ee\L	.
.	.	8dd\	.
.	4r	8ee\	.
.	.	8ffn\J	.
.	2r	8gg\L	.
.	.	(8ff\)	.
.	.	8ee\	.
.	.	8dd\J)	.
*	*v	*v	*
=44	=44	=44
[2a/	(8ee\L	f
.	8dd\	.
.	8cc#\	.
.	8b\J	.
8a/L]	4a/)	>
8g/	.	.
8f#/	4r	.
8e/J	.	.
*clefF4	*	*
=45	=45	=45
8d\L	(8ff#\L	p
8c#\	8ee\	.
8d\	8ff#\	<
8e\J	8gg\J	.
8f#\L	2aa\)	.
8e\	.	.
8d\	.	.
8c#\J	.	.
=46	=46	=46
*^	*	*
(8d/L	1B	(8ff#\L	.
8c#/	.	8ee\	.
8d/	.	8ff#\	.
8e/J	.	8gg\J	.
8f#/L	.	2aa\)	.
8e/	.	.	.
8d/	.	.	.
8c#/J)	.	.	.
=47	=47	=47	=47
(8d/L	1A	(8ff#\L	.
8c#/	.	8ee\	.
8d/	.	8ff#\	.
8e/J	.	8gg\J	.
8f#/L	.	2aa\)	.
8e/	.	.	.
8d/	.	.	.
8c#/J)	.	.	.
=48	=48	=48	=48
(8d/L	1G	(8ff#\L	.
8c#/	.	8ee\	.
8d/	.	8ff#\	.
8e/J	.	8gg\J	.
8f#/L	.	2aa\)	.
8e/	.	.	.
8d/	.	.	.
8c#/J)	.	.	.
=49	=49	=49	=49
8d/L	1F#	(8ff#\L	.
8c#/	.	8ee\	.
8d/	.	8ff#\	.
8e/J	.	8gg\J	.
8f#/L	.	2aa\	.
8e/	.	.	.
8d/	.	.	.
8c#/J	.	.	.
*v	*v	*	*
=50	=50	=50
8B\L	4dd'\)	f
8A\	.	.
8G\	2bb^\	.
8F#\J	.	.
8E/L	.	.
8D/	.	.
8C#/	([4gg^\	.
8BB/J	.	.
=51	=51	=51
1AAA^	8gg\L]	.
.	8ff#\	.
.	8ee\	.
.	8dd\J	.
.	8cc#/L	.
.	8b/	.
.	8a/	.
.	8g/J	.
=52	=52	=52
(4DD/	8f#/L	.
.	8g/	.
4GG/	8a/	.
.	8g/J	.
4AA'/)	8f#/L	>
.	8e/	.
4AAA'/	8d/	.
.	8c#/J)	.
=53	=53	=53
(8d\L	(8ff#\L	p
8c#\	8ee\	<
8d\	8ff#\	.
8e\J	8gg\J	.
8f#\L	2aa\)	.
8e\	.	.
8d\	.	.
8c#\J	.	.
=54	=54	=54
*^	*	*
8d/L	1B)	8ff#\L	.
8c#/	.	8ee\	.
8d/	.	8ff#\	.
8e/J	.	8gg\J	.
8f#/L	.	2aa\	.
8e/	.	.	.
8d/	.	.	.
8c#/J	.	.	.
=55	=55	=55	=55
(8d/L	1A	(8ff#\L	.
8c#/	.	8ee\	.
8d/	.	8ff#\	.
8e/J	.	8gg\J	.
8f#/L	.	2aa\)	.
8e/	.	.	.
8d/	.	.	.
8c#/J)	.	.	.
=56	=56	=56	=56
(8d/L	1G	(8ff#\L	.
8c#/	.	8ee\	.
8d/	.	8ff#\	.
8e/J	.	8gg\J	.
8f#/L	.	2aa\)	.
8e/	.	.	.
8d/	.	.	.
8c#/J)	.	.	.
=57	=57	=57	=57
8d/L	1F#	(8ff#\L	.
8c#/	.	8ee\	.
8d/	.	8ff#\	.
8e/J	.	8gg\J	.
8f#/L	.	2aa\	.
8e/	.	.	.
8d/	.	.	.
8c#/J	.	.	.
*v	*v	*	*
=58	=58	=58
8B\L	4dd'\)	f
8A\	.	.
8G\	2bb^\	.
8F#\J	.	.
8E/L	.	.
8D/	.	.
8C#/	([4gg^\	.
8BB/J	.	.
=59	=59	=59
1AAA	8gg\L]	.
.	8ff#\	.
.	8ee\	.
.	8dd\J	.
.	8cc#/L	.
.	8b/	.
.	8a/	.
.	8g/J	.
=60	=60	=60
4DD/	8f#/L	.
.	8g/	.
4GG/	8a/	.
.	8g/J	.
4AA'/	8f#/L	.
.	8e/	.
4AAA'/	8d/	.
.	8c#/J	.
=61	=61	=61
1DD	8d/L)	p
.	(8f#/	<
.	8g/	.
.	8e/J	.
.	8f#\L	.
.	8dd\	.
.	8ee\	.
.	8cc#\J	.
=62	=62	=62
1DD	8dd\L	.
.	8ff#\	.
.	8gg\	.
.	8ee\J	.
.	8ff#\L	.
.	8ccc#\	.
.	8ddd\	.
.	8aa\J	.
=63	=63	=63
2GG/	8bb\L	f
.	8ee\	.
.	8ff#\	.
.	8gg\J	.
2AA/	8ff#\L	.
.	8ee\	.
.	8dd\	.
.	8cc#\J	.
=64	=64	=64
8r	1dd)	p
(8f#\L	.	.
8g\	.	.
8e\J	.	.
8f#\L	.	.
8d\	.	.
8e\	.	.
8c#\J	.	.
=65	=65	=65
8d\L	1dd	.
8A\	.	.
8B\	.	.
8G\J	.	.
8A\L	.	.
8F#\	.	.
8G\	.	.
8E\J	.	.
=66	=66	=66
8F#\L	1dd	.
8D\	.	.
8E\	.	.
8C#\J	.	.
8D/L	.	.
8AA/	.	.
8BB/	.	.
8GG/J	.	.
=67	=67	=67
8AA/L	1dd	.
8FF#/	.	.
8GG/	.	.
8EE/J	.	.
8FF#/L	.	.
8DD/	.	.
8EE/	.	.
8CC#/J	.	.
=68	=68	=68
1DD)	8r	.
.	8d/L	f
.	8f#/	.
.	8a/J	.
.	8dd\L	.
.	8dd\	.
.	8ff#\	.
.	8aa\J	.
=69	=69	=69
*	*^	*
2D\	2r	4ddd\	.
.	.	4dd'\	.
2AA/	(2ee/	2cc#\	.
*	*v	*v	*
=70	=70	=70
1DD	8dd/L)	.
.	(8d/	p
.	8f#/	.
.	8a/J	.
.	8dd\L)	.
.	(8dd\	.
.	8ff#\	.
.	8aa\J	.
=71	=71	=71
2D\	4ddd'\)	.
.	4d'/	f
.	f#q/	.
2AA/	(2c#/ 2e/	.
=72	=72	=72
2.DD/	2.d/)	.
=:|!|:	=:|!|:	=:|!|:
*>B	*>B	*>B
4r	4ddd'\	p
*clefG2	*	*
=73	=73	=73
2d/ 2f#/ 2a/	(4ddd\	.
.	4aa\)	.
2d/ 2f#/ 2a/	(4aa\	.
.	4bb\)	.
=74	=74	=74
2c#/ 2g/ 2a/	(4bb\	.
.	4aa\)	.
2c#/ 2g/ 2a/	(4aa\	.
.	4gg\)	.
=75	=75	=75
*^	*	*
(2.a/	2d\	(4ff#\	.
.	.	4ee\	.
.	2B\	4dd\	.
4g#/	.	8cc#\L	.
.	.	8dd\J)	.
*v	*v	*	*
=76	=76	=76
.	ddq/	.
4A/ 4a/)	2ee\	<
*clefF4	*	*
4A\ (4a\	.	.
4Gn\ 4gn\)	4r	.
4F#'\ 4f#'\	4aa'\	.
=77	=77	=77
4E\ (4e\	(4aa\	.
4D\ 4d\	4cc#\)	.
4C#\ 4c#\	(4cc#\	.
4BB\ 4B\	4dd\)	.
=78	=78	=78
4AA\ 4A\	4dd'\	.
4GG/ 4G/	4cc#\ 4ee\	.
4FF#/ 4F#/	4dd\ 4ff#\	.
4EE/ 4E/	4ee\ 4gg\	.
=79	=79	=79
4DD/ 4D/)	4ff#\ 4aa\	f
(4G\	8bb\L	.
.	8gg\J	.
4A'\)	4dd'\ 4ff#'\	.
4AA'/	4cc#'\ 4ee'\	.
=80	=80	=80
2.DD/	2dd\	.
.	4r	.
4r	4ddd'\	p
*clefG2	*	*
=81	=81	=81
2d/ 2f#/ 2a/	(4ddd\	.
.	4aa\)	.
2d/ 2f#/ 2a/	(4aa\	.
.	4bb-\)	.
=82	=82	=82
2c#/ 2g/ 2a/	(4bb-\	.
.	4aa\)	.
2c#/ 2g/ 2a/	(4aa\	.
.	4gg\)	.
=83	=83	=83
*^	*	*
2.a/	(2d\	(4ff#\	.
.	.	4ee\	.
.	2B-\	4dd\	.
4g#/	.	8cc#\L	.
.	.	8dd\J)	.
*v	*v	*	*
=84	=84	=84
2A/) 2a/	4dd\	>
.	4ee\	.
2r	4r	.
.	4ee\	p
=85	=85	=85
(2a\ 2ccn\	4ee\ 4cccn\	.
.	4ee\ 4ccc\	.
2g/ 2b/	4ee\ 4ccc\	.
.	4ee\ 4ccc\	.
=86	=86	=86
2f#/) [2a/	4ee\ 4ccc\	.
.	4dd\ 4bb\	.
.	aaq/	.
(2fn/ 2a/]	[2b\ [2gg#\	mf
=87	=87	=87
2e/ 2g#/	4b\] 4gg#\]	.
.	4dd\ 4bb\	.
.	aaq/	.
2fn/ 2a/	[2b\ 2gg#\	.
=88	=88	=88
2e/ 2g#/	4b\] 4gg#\	.
.	4dd\ 4bb\	.
.	aaq/	.
2fn/ 2a/	[2b\ 2gg#\	.
=89	=89	=89
*	*^	*
2e/ 2g#/	4r	4b\] 4gg#\	.
.	2.aa/	4cc\	.
2fn/ 2a/	.	4dd\	.
.	.	8cc\L	.
.	.	8dd\J	.
=90	=90	=90	=90
2e/) 2b/	4aa/	2ee\	.
.	4bb/	.	.
2r	2r	2r	.
*clefF4	*	*	*
=91	=91	=91	=91
1EE 1BB 1E	2.ee^/ 2.gg#^/	4b'\	f
.	.	(8b\L	.
.	.	8g#\J	.
.	.	2b\)	.
.	4ee'/ 4gg#'/	.	.
=92	=92	=92	=92
1BBB 1BB	4ee'/ 4gg#'/	4b\	.
.	(8ff#/L	4cc#\	.
.	8ee/J	.	.
.	4ff#'/)	4dd#'\	.
.	4gg#'/	4ee'\	.
=93	=93	=93	=93
1BBB 1BB	2.aa^/	4b'\ 4dd#'\ 4ff#'\	.
.	.	(8ff#\L	.
.	.	8dd#\J	.
.	.	4b'\)	.
.	4aa/	4b'\ 4dd#'\ 4ff#'\	.
=94	=94	=94	=94
1EE 1BB 1E	(4aa^/	4b\ 4ee\	.
.	4r	8gg#\L	.
.	.	8ff#\J	.
.	2r	8ee\L	.
.	.	8b\	.
.	.	8ee\	.
.	.	8gg#\J)	.
=95	=95	=95	=95
1EE 1BB 1E	2.e^/ 2.g#^/	4B'\	p
.	.	(8A\L	.
.	.	8G#\J	.
.	.	4B\)	.
.	4e'/ 4g#'/	4B'\	.
=96	=96	=96	=96
1BBB 1BB	4e'/ 4g#'/	4B\	.
.	(8f#/L	4c#\	.
.	8e/J	.	.
.	4f#'/	4d#'\)	.
.	4g#'/	4e'\	.
=97	=97	=97	=97
1BBB 1BB	2.a^/	(4B\ 4d#\ 4f#\	.
.	.	8f#\L	.
.	.	8d#\J	.
.	.	4B'\)	.
.	4d#'/ 4f#'/ 4a'/	4B'\	.
=98	=98	=98	=98
1EE 1BB 1E	(4a^/	2B^\ 2e^\	.
.	8g#/L	.	.
.	8f#/J	.	.
.	4e/)	2r	.
.	(4ee\	.	p
*clefG2	*v	*v	*
=99	=99	=99
2a\ 2ee\	(4aa'\)	.
.	4aa'\	.
2g\ 2ee\	4aa'\	.
.	4aa'\	.
=100	=100	=100
2f#\ 2ee\	4aa'\	.
.	4aa'\	.
2g\ 2dd\	4aa\	.
.	4bb\)	.
=101	=101	=101
2e/ 2g/ 2cc#/	(4bb\	.
.	4aa\	.
(2e/ 2g/ 2cc#/	4gg\	.
.	8ff#\L	.
.	8gg\J)	.
=102	=102	=102
2d/) 2a/ 2dd/	4gg\	>
.	4aa\	.
2r	2r	.
*clefF4	*	*
=103	=103	=103
*	*^	*
1GG 1D	2.d^/ 2.g^/	4B'\	p
.	.	(8B\L	.
.	.	8G\J	.
.	.	4B\)	.
.	4d'/ 4g'/	4B'\	.
*	*v	*v	*
=104	=104	=104
1DD 1AA 1D	4B'/ 4d'/ 4g'/	<
.	(8A/ 8f#/L	.
.	8G/ 8e/J	.
.	4A'/) 4f#'/	.
.	4B'/ 4g'/	.
=105	=105	=105
*	*^	*
1DD 1AA 1D	2.f#^/ 2.a^/	4c'\	.
.	.	(8c\L	.
.	.	8B\J	.
.	.	4c\)	.
.	4f#/ 4a/	4c'\	.
*	*v	*v	*
=106	=106	=106
1GGG 1DD 1GG	4c'/ 4f#'/ 4a'/	.
.	(8B/ 8g/L	.
.	8A/ 8f#/J	.
.	4B'/) 4g'/	.
.	4c'/ 4a'/	.
=107	=107	=107
*	*^	*
1GGG 1DD 1GG	2.g/ 2.b/	4d\	mf
.	.	(8d\L	.
.	.	8B\J	.
.	.	4d\)	<
.	4g/ 4b/	4d'\	.
*	*v	*v	*
=108	=108	=108
1DD 1AA 1D	4d'/ 4g'/ 4b'/	.
.	(8f#/ 8a/L	.
.	8e/ 8g/J	.
.	4f#/) 4a/	.
.	4g'/ 4b'/	.
=109	=109	=109
*	*^	*
1DD 1AA 1D	2.cc^/	4d'\ 4f#'\ 4a'\	.
.	.	(8a\L	.
.	.	8f#\J	.
.	.	4d'\)	.
.	4cc'/	4d'\ 4f#'\ 4a'\	.
=110	=110	=110	=110
2GGG/ 2DD/ 2GG/	(4cc/	2d^\ 2g^\	>
*	*v	*v	*
*	*^	*
.	8b/L	.	.
.	8a/J	.	.
2r	2g/)	2r	.
*clefG2	*	*	*
=111	=111	=111	=111
1gg	4ggg/	(8bb-\L	p
.	.	8aa\	.
.	4r	8bb-\	.
.	.	8ccc\J	.
.	2r	8ddd\L	.
.	.	8ccc\)	.
.	.	8bb-\	.
.	.	8aa\J	.
=112	=112	=112	=112
1ffn	4ggg/	(8bb-\L	<
.	.	8aa\	.
.	4r	8bb-\	.
.	.	8ccc\J	.
.	2r	8ddd\L	.
.	.	(8ccc\)	.
.	.	8bb-\	.
.	.	8aa\J)	.
=113	=113	=113	=113
1ee- 1gg	4ggg/	(8bb-\L	.
.	.	8aa\	.
.	4r	8bb-\	.
.	.	8ccc\J	.
.	2r	8ddd\L	.
.	.	8ccc\)	.
.	.	(8bb-\	.
.	.	8aa\J)	.
=114	=114	=114	=114
1dd 1gg	4ggg/	(8bb-\L	mf
.	.	8aa\	.
.	4r	8bb-\	.
.	.	8ccc\J	.
.	2r	8ddd\L	.
.	.	8ccc\)	.
.	.	8ddd\	.
.	.	8bb-\J	.
=115	=115	=115	=115
1cc (1ee-	4fff#/	(8aa\L	p
.	.	8gg\	.
.	4r	8aa\	.
.	.	8bb-\J	.
.	2r	8ccc\L	.
.	.	8bb-\)	.
.	.	(8aa\	.
.	.	8gg\J)	.
=116	=116	=116	=116
1dd 1ff#	4fff#/	8aa\L	.
.	.	8gg\	.
.	4r	8aa\	.
.	.	8bb-\J	.
.	2r	8ccc\L	.
.	.	8bb-\	.
.	.	8aa\	.
.	.	8gg\J	.
=117	=117	=117	=117
1cc 1ee-)	4fff#/	8aa\L	.
.	.	8gg\	.
.	4r	8aa\	.
.	.	8bb-\J	.
.	2r	8ccc\L	.
.	.	8bb-\	.
.	.	8aa\	.
.	.	8gg\J	.
=118	=118	=118	=118
1cc 1ee-	4fff#/	(8aa\L	.
.	.	8gg\	.
.	4r	8aa\	.
.	.	8bb-\J	.
.	2r	8ccc\L	.
.	.	8bb-\)	.
.	.	8aa\	.
.	.	8gg\J	.
*	*v	*v	*
=119	=119	=119
([2dd\	(8aa\L	f
.	8gg\	.
.	8ff#\	.
.	8ee\J	.
8dd\L]	4dd\)	>
8cc\	.	.
8bn\	4r	.
8a\J	.	.
=120	=120	=120
8g/L	8bb\L	p
8f#/	8aa\	<
8g/	8bb\	.
8a/J	8ccc\J	.
8b/L	2ddd\	.
8a/	.	.
8g/	.	.
8f#/J	.	.
=121	=121	=121
*^	*	*
8g/L	1e)	8bb\L	.
8f#/	.	8aa\	.
8g/	.	8bb\	.
8a/J	.	8ccc\J	.
8b/L	.	2ddd'\	.
8a/	.	.	.
8g/	.	.	.
8f#/J	.	.	.
=122	=122	=122	=122
(8g/L	1d	(8bb\L	.
8f#/	.	8aa\	.
8g/	.	8bb\	.
8a/J	.	8ccc\J	.
8b/L	.	2ddd\)	.
8a/	.	.	.
8g/	.	.	.
8f#/J)	.	.	.
=123	=123	=123	=123
(8g/L	1c	(8bb\L	.
8f#/	.	8aa\	.
8g/	.	8bb\	.
8a/J	.	8ccc\J	.
8b/L	.	2ddd\)	.
8a/	.	.	.
8g/	.	.	.
8f#/J)	.	.	.
=124	=124	=124	=124
(8g/L	1B	(8bb\L	.
8f#/	.	8aa\	.
8g/	.	8bb\	.
8a/J	.	8ccc\J	.
8b/L	.	[2ddd\)	f
8a/	.	.	.
8g/	.	.	.
8f#/J	.	.	.
*v	*v	*	*
=125	=125	=125
8e/L	4ddd\]	.
8d/	.	.
8c/	2eee^\	.
8B/J	.	.
*clefF4	*	*
8A\L	.	.
8G\	.	.
8F#\	[4ccc^\	.
8E\J)	.	.
=126	=126	=126
1DD	8ccc\L]	.
.	8bb\	.
.	8aa\	.
.	8gg\J	.
.	8ff#\L	.
.	8ee\	.
.	8dd\	.
.	8cc\J	.
=127	=127	=127
(4GG/	8b\L	.
.	8cc\	.
4C/	8dd\	.
.	8cc\J	.
4D'/)	8b/L	>
.	8a/	.
4DD'/	8g/	.
.	8f#/J	.
*clefG2	*	*
=128	=128	=128
(8g/L	(8bb\L	p
8f#/	8aa\	<
8g/	8bb\	.
8a/J	8ccc\J	.
8b/L	2ddd\)	.
8a/	.	.
8g/	.	.
8f#/J	.	.
=129	=129	=129
*^	*	*
8g/L	1e)	8bb\L	.
8f#/	.	8aa\	.
8g/	.	8bb\	.
8a/J	.	8ccc\J	.
8b/L	.	2ddd\	.
8a/	.	.	.
8g/	.	.	.
8f#/J	.	.	.
=130	=130	=130	=130
(8g/L	1d	(8bb\L	.
8f#/	.	8aa\	.
8g/	.	8bb\	.
8a/J	.	8ccc\J	.
8b/L	.	2ddd\)	.
8a/	.	.	.
8g/	.	.	.
8f#/J)	.	.	.
=131	=131	=131	=131
(8g/L	1c	(8bb\L	.
8f#/	.	8aa\	.
8g/	.	8bb\	.
8a/J	.	8ccc\J	.
8b/L	.	2ddd\)	.
8a/	.	.	.
8g/	.	.	.
8f#/J)	.	.	.
=132	=132	=132	=132
(8g/L	1B	(8bb\L	.
8f#/	.	8aa\	.
8g/	.	8bb\	.
8a/J	.	8ccc\J	.
8b/L	.	[2ddd\)	f
8a/	.	.	.
8g/	.	.	.
8f#/J	.	.	.
*v	*v	*	*
=133	=133	=133
8e/L	4ddd\]	.
8d/	.	.
8c/	2eee^\	.
8B/J	.	.
*clefF4	*	*
8A\L	.	.
8G\	.	.
8F#\	[4ccc\	.
8E\J)	.	.
=134	=134	=134
1DD	8ccc\L]	.
.	8bb\	.
.	8aa\	.
.	8gg\J	.
.	8ff#\L	.
.	8ee\	.
.	8dd\	.
.	8cc\J	.
=135	=135	=135
(4GG/	8b\L	.
.	8cc\	.
4C/	8dd\	.
.	8cc\J	.
4D'/)	8b/L	.
.	8a/	.
4DD'/	8g/	.
.	8f#/J	.
=136	=136	=136
1GG	8g\L	p
.	(8b\	<
.	8cc\	.
.	8a\J	.
.	8b\L	.
.	8dd\	.
.	8ee\	.
.	8cc\J	.
=137	=137	=137
1GG	8dd\L	.
.	8gg\	.
.	8aa\	.
.	8ff#\J	.
.	8gg\L	.
.	8dd\	.
.	8ee\	.
.	8ff#\J	.
=138	=138	=138
4CC/	8ee\L	f
.	8b\	.
4C/	8cc\	.
.	8dd\J	.
4D'/	8b/L	.
.	8g/	.
4DD'/	8a/	.
.	8f#/J	.
=139	=139	=139
8GG'/	4g/)	p
*clefG2	*	*
(8b/L	.	.
8cc/	4r	.
8a/J	.	.
8b/L	2r	.
8g/	.	.
8a/	.	.
8f#/J	.	.
=140	=140	=140
8g/L	1gg	.
8d/	.	.
8e/	.	.
8c/J	.	.
8d/L	.	.
8B/	.	.
8c/	.	.
8A/J	.	.
*clefF4	*	*
=141	=141	=141
8B\L	1gg	.
8G\	.	.
8A\	.	.
8F#\J	.	.
8G\L	.	.
8D\	.	.
8E\	.	.
8C\J	.	.
=142	=142	=142
8D/L	1gg	.
8BB/	.	.
8C/	.	.
8AA/J	.	.
8BB/L	.	.
8GG/	.	.
8AA/	.	.
8FF#/J	.	.
=143	=143	=143
1GG)	8r	.
.	8g\L	f
.	8b\	.
.	8dd\J	.
.	8gg\L	.
.	8gg\	.
.	8bb\	.
.	8ddd\J	.
=144	=144	=144
2GG/	4ggg'\	.
.	4gg'\	.
2DD/	2ff#\ (2aa\	.
=145	=145	=145
1GGG	8gg\L)	.
.	(8g\	p
.	8b\	.
.	8dd\J	.
.	8gg\L)	.
.	(8gg\	.
.	8bb\	.
.	8ddd\J	.
=146	=146	=146
(2GG/	4ggg'\)	f
.	4G'/	.
2DD/	2F#/ 2A/	.
=147	=147	=147
2.GGG/)	2.G/	.
==:|!	==:|!	==:|!
*-	*-	*-
!!!ENC: Craig Stuart Sapp
!!!END: 2004/11/06/
